!!!OTL: Ajiege
!!!ARE: Asia, China,ÿZhejiang Yuyao
!! III, 611
!!!SCT: C2066
!!!YEM: Copyright 1995, estate of Helmut Schaffrath.
**kern
*ICvox
*Ivox
!! Mixed meters:  3/4; 4/4
*M4/4
*k[]
*C:
{16a
8.a
8cc
8a
8g
16e
16g
8a
8r
=1
8dd
8dd
8cc
8a
8g
16e
16g
8a
8r}
=2
*M3/4
{8a
8a
8cc
8g
8a
8r
=3
8dd
8dd
8cc
8g
8a
8r}
=4
{8a
8a
8cc
16a
16g
8e
8r
=5
8dd
8dd
8cc
16a
16g
8e
8r}
=6
*M4/4
{8ee
8ee
8dd
8ee
4cc
8gg
8ee
=7
*M3/4
4dd
8cc
16a
16g
8a
8r}
=8
*M4/4
{4cc
8a
8a
8g
16e
16g
8a
8r
=9
8cc
16a
16a
8g
16e
16g
4a}
==
!!!AGN: Xiaodiao
!!!AMT: irregular
!!!AIN: vox
!!!EED: Helmut Schaffrath
!!!EEV: 1.0
*-
